X: 1428
T: Fiddler's Red Socks
C:Bob Rummery, Sorrento, WA
B: australian traditional tunes wiki
M:2/4
L:1/16
R: Set Tune
Q: 1/4=100
K:G
V:1 
B2|:"G"b4g2d2|"C"e2edc4|"D7"A4d2d2|fedc "G"d2B2|
b4g2d2|"C"e2edc4|"D7"A4d2de|dcBA "G"G4:|
|:"D"A4c2Ac|"G"B2Bc dcA2|"C"c2cd edc2|"D7"f3g agf2|
"G"b4g2d2|"C"e2edc4|"D7"A4d2de|dcBA"G"G4:|
% abcbook-tune_id 6342d53a78b5acda6f842c05


% abcbook-boost 0
% abcbook-tablature 
% abcbook-transpose 
% abcbook-lastupdated 1665324364692
% abcbook-soundfonts 
% abcbook-repeats 1
% NFF Book 2014

